!!!SOCIAL_FUNCTION:	unclassified songs
!!!PDT:	1909
!!!OTL: No_186_Song_Referring_to_an_Historical_Incident.krn
!!!REG: Great_Lakes
!!!LANG: Non-Tone
!!!LING_GROUP: Algonquin
**kern	**kern
*staff2	*staff1
*clefF4	*clefG2
*k[b-e-a-d-g-c-]	*k[b-e-a-d-g-c-]
*M3/4	*M3/4
16GG-/	16b-\
=1	=1
12GG-^/	16b-/LK
.	8.a-/J
12r	.
12GG-/	.
12GG-^/	8.g-/L
12r	.
12GG-/	.
.	16b-/Jk
12GG-^/	(16b-/LK
.	8.g-/J)
12r	.
12GG-/	.
=2	=2
2.r	2g-/
.	8.g-/L
.	16e-/Jk
=3||	=3||
*M4/4	*M4/4
1r	4g-/
.	4g-/
.	4g-/
.	8.g-/L
.	16b-/Jk
=4||	=4||
*M3/4	*M3/4
2.r	(12b-/L
.	12a-/)
.	12a-/J
.	(12a-/L
.	12g-/)
.	12g-/J
.	12g-/L
.	12e-/
.	12e-/J
=5	=5
2.r	2d-/
.	8.d-/L
.	16B-/Jk
=6||	=6||
*M4/4	*M4/4
1r	4d-/
.	4d-/
.	4d-/
.	8.d-/L
.	16g-/Jk
=7||	=7||
*M3/4	*M3/4
2.r	4g-/
.	8.d-/L
.	16e-/Jk
.	8.d-/L
.	16d-/Jk
=8	=8
2.r	2B-/
.	8.B-/L
.	16A-/Jk
=9	=9
2r	(2G-/
8.G-\L	4r
16E-\Jk	.
=10	=10
[2G-\	2.r
8.G-\L]	.
16B-\Jk	.
=11||	=11||
*M4/4	*M4/4
8.B-\L	1r
16A-\K	.
8.G-\	.
16B-\Jk	.
8.G-\L	.
16E-\K	.
8.G-\	.
16E-\Jk	.
=12||	=12||
*M3/4	*M3/4
8.D-\L	2.r
16D-\Jk	.
2D-\	.
=13	=13
2D-\	2.r
4D-\	.
==	==
*-	*-
